public/assets/images/icons/grey/skype2.svg

<svg width="16" height="16" xmlns="http://www.w3.org/2000/svg" viewBox="0 0 16 16" shape-rendering="geometricPrecision" fill="#6e6e6e"><path d="M14.307 9.69c.143-.537.227-1.1.227-1.682a6.525 6.525 0 0 0-6.525-6.525c-.581 0-1.142.084-1.678.227A3.321 3.321 0 0 0 1.71 6.329a6.51 6.51 0 0 0-.226 1.68 6.525 6.525 0 0 0 6.525 6.525 6.45 6.45 0 0 0 1.683-.229 3.322 3.322 0 0 0 4.615-4.615zm-3.332 1.299a2.43 2.43 0 0 1-.63.832 3.07 3.07 0 0 1-1.002.568 3.926 3.926 0 0 1-1.333.209 4.47 4.47 0 0 1-1.72-.338 4.481 4.481 0 0 1-1.464-.96l.908-1.07a3.96 3.96 0 0 0 1.083.725 2.93 2.93 0 0 0 1.232.277c.496 0 .878-.104 1.145-.311a.996.996 0 0 0 .399-.826.96.96 0 0 0-.102-.461 1.024 1.024 0 0 0-.283-.332 2.509 2.509 0 0 0-.44-.264 9.714 9.714 0 0 0-.556-.242l-1.205-.529a4.36 4.36 0 0 1-.65-.34 2.567 2.567 0 0 1-.576-.487 2.264 2.264 0 0 1-.562-1.531c0-.352.075-.678.224-.983.149-.3.354-.566.616-.79.262-.227.573-.4.934-.527.361-.127.759-.19 1.192-.19.524 0 1.024.1 1.503.305.478.203.889.477 1.232.818l-.812 1.002a3.653 3.653 0 0 0-.887-.555 2.577 2.577 0 0 0-1.036-.203c-.424 0-.76.092-1.009.277a.904.904 0 0 0-.373.766c0 .17.039.316.116.439.076.122.181.231.312.325.13.096.281.182.453.258.171.078.347.15.528.225l1.192.5c.262.109.503.234.724.381.222.143.411.311.569.498.158.191.28.41.366.658.085.248.128.535.128.861 0 .359-.071.699-.216 1.015z"/></svg>

<?xml version="1.0"?><!DOCTYPE svg PUBLIC "-//W3C//DTD SVG 1.1//EN" "http://www.w3.org/Graphics/SVG/1.1/DTD/svg11.dtd"><svg width="16px" height="16px" xmlns="http://www.w3.org/2000/svg" viewBox="0 0 16 16" shape-rendering="geometricPrecision" fill="#6e6e6e"><path d="M14.307,9.69c0.143-0.537,0.227-1.1,0.227-1.682 c0-3.604-2.922-6.525-6.525-6.525c-0.581,0-1.142,0.084-1.678,0.227C5.794,1.337,5.143,1.118,4.44,1.118 c-1.835,0-3.322,1.486-3.322,3.322c0,0.701,0.22,1.353,0.592,1.889c-0.143,0.537-0.226,1.098-0.226,1.68 c0,3.604,2.922,6.525,6.525,6.525c0.583,0,1.145-0.084,1.683-0.229c0.532,0.363,1.175,0.576,1.868,0.576 c1.835,0,3.322-1.488,3.322-3.322C14.882,10.866,14.67,10.224,14.307,9.69z M10.975,10.989c-0.144,0.316-0.354,0.592-0.63,0.832 c-0.275,0.24-0.609,0.428-1.002,0.568c-0.392,0.141-0.837,0.209-1.333,0.209c-0.596,0-1.169-0.111-1.72-0.338 C5.739,12.036,5.25,11.716,4.826,11.3l0.908-1.07c0.316,0.297,0.677,0.541,1.083,0.725c0.406,0.186,0.817,0.277,1.232,0.277 c0.496,0,0.878-0.104,1.145-0.311c0.266-0.209,0.399-0.482,0.399-0.826c0-0.182-0.034-0.334-0.102-0.461 C9.424,9.509,9.33,9.395,9.208,9.302C9.085,9.208,8.939,9.12,8.768,9.038C8.596,8.956,8.411,8.876,8.212,8.796L7.007,8.267 c-0.216-0.09-0.433-0.203-0.65-0.34C6.14,7.792,5.948,7.63,5.781,7.44C5.615,7.251,5.479,7.03,5.375,6.776 C5.271,6.522,5.219,6.235,5.219,5.909c0-0.352,0.075-0.678,0.224-0.983C5.592,4.626,5.797,4.36,6.059,4.136 c0.262-0.227,0.573-0.4,0.934-0.527c0.361-0.127,0.759-0.19,1.192-0.19c0.524,0,1.024,0.1,1.503,0.305 c0.478,0.203,0.889,0.477,1.232,0.818l-0.812,1.002c-0.28-0.234-0.576-0.42-0.887-0.555C8.91,4.854,8.564,4.786,8.185,4.786 c-0.424,0-0.76,0.092-1.009,0.277C6.928,5.247,6.803,5.505,6.803,5.829c0,0.17,0.039,0.316,0.116,0.439 C6.995,6.39,7.1,6.499,7.231,6.593c0.13,0.096,0.281,0.182,0.453,0.258c0.171,0.078,0.347,0.15,0.528,0.225l1.192,0.5 c0.262,0.109,0.503,0.234,0.724,0.381c0.222,0.143,0.411,0.311,0.569,0.498c0.158,0.191,0.28,0.41,0.366,0.658 c0.085,0.248,0.128,0.535,0.128,0.861C11.191,10.333,11.12,10.673,10.975,10.989z"/></svg>
